wp-content/plugins/the-events-calendar/src/resources/icons/stethoscope.svg

<svg width="47" height="47" xmlns="http://www.w3.org/2000/svg"><g transform="translate(1 1)" stroke-width="3" fill="none" fill-rule="evenodd" stroke-linecap="square"><path d="M14.5 30.5v2c0 6.6 5.4 12 12 12h0c6.6 0 12-5.4 12-12h0" stroke="#16A0D6"/><circle stroke="#16A0D6" cx="38.5" cy="26.5" r="6"/><path d="M20.5 2.5h5.7c1.2 0 2.2 1.1 2 2.3L25 27.1c-.3 2-2 3.4-4 3.4H8c-2 0-3.7-1.5-4-3.4L.8 4.8c-.1-1.2.8-2.3 2-2.3h5.7M8.5.5v4M20.5.5v4" stroke="#111"/></g></svg>

<?xml version="1.0" encoding="UTF-8"?>
<svg width="47px" height="47px" viewBox="0 0 47 47" version="1.1" xmlns="http://www.w3.org/2000/svg" xmlns:xlink="http://www.w3.org/1999/xlink">
    <!-- Generator: Sketch 53.2 (72643) - https://sketchapp.com -->
    <title>doctor</title>
    <desc>Created with Sketch.</desc>
    <g id="Freemius" stroke="none" stroke-width="1" fill="none" fill-rule="evenodd" stroke-linecap="square">
        <g id="Dashboard-Copy" transform="translate(-324.000000, -155.000000)" stroke-width="3">
            <g id="Group" transform="translate(220.000000, 146.000000)">
                <g id="doctor" transform="translate(105.000000, 10.000000)">
                    <path d="M14.5,30.5 L14.5,32.5 C14.5,39.1 19.9,44.5 26.5,44.5 L26.5,44.5 C33.1,44.5 38.5,39.1 38.5,32.5 L38.5,32.5" id="Path" stroke="#16A0D6"></path>
                    <circle id="Oval" stroke="#16A0D6" cx="38.5" cy="26.5" r="6"></circle>
                    <path d="M20.5,2.5 L26.2,2.5 C27.4,2.5 28.4,3.6 28.2,4.8 L25,27.1 C24.7,29.1 23,30.5 21,30.5 L8,30.5 C6,30.5 4.3,29 4,27.1 L0.8,4.8 C0.7,3.6 1.6,2.5 2.8,2.5 L8.5,2.5" id="Path" stroke="#111111"></path>
                    <path d="M8.5,0.5 L8.5,4.5" id="Path" stroke="#111111"></path>
                    <path d="M20.5,0.5 L20.5,4.5" id="Path" stroke="#111111"></path>
                </g>
            </g>
        </g>
    </g>
</svg>
